X:1
T:Don't Fence Me In
T:Don't Fence Me In
T:Cole Porter
T:Cole Porter; Robert Fletcher
C:Cole Porter
Z:All Rights Reserved
L:1/8
M:4/4
K:F
V:1 treble 
%%MIDI program 24
V:1
"C7" C2"Gm7" F2"Bbdim" G2 |"F" A2 A>^G"Fmaj7" A2 A>^G |"F6" A>GF>G"Fmaj7" A4 |"F" A4"Gm7" B2 AG- | %4
w: Oh, give me|land, lots of land un- der|star- ry skies a- bove.|Don't fence me in.|
[K:treble]"C7" G6 E>F |"Gm7" G2 G>^F"C7" G2 G>F |"Gm7" G>FE>F"C7" G4 |"Bb6" c4"Bbdim" c3 B | %8
w: * Let me|ride thru the wide o- pen|coun- try that I love.|Don't fence me|
"Fmaj7""F6" A6 F>G |"F" A2 A>_A"Fmaj7" =A2 A>_A |"F7" A2 A2"F+7" (G F3) |"Bb6" B>AB>A B>AB>c | %12
w: in. Let me|be by my- self in the|eve- ning breeze, *|lis- ten to the mur- mur of the|
"Bbmaj7" d>^c d2"Eb9" (=c B3) |"F" A>^GA>B"Cm" c>=Bc>d |"Ebdim" _e2 d2"Bbm6" (c B3) | %15
w: cot- ton- wood trees. *|Send me off for- ev- er, but I|ask you please, *|
"F" A4"Bbmaj7" A2"Bbdim" G"F"F- | F2 F2"F7" F2 F2 |"Bbmaj7" F2 D>E F>ED>E | F>ED>E"Bb6" F>GF>D | %19
w: don't fence me in.|* Just turn me|loose, let me strad- dle my old|sad- dle un- der- neath the west- ern|
"F" C8- |"F7" C2 F2"F+7" F2 F2 |"Bbmaj7" F2 D>E F>ED>E | F>ED>E"Bb6" F>GF>D |"F""Ebdim" C8- | %24
w: skies.|* On my cay-|use, let me wan- der o- ver|yon- der till I see the moun- tains|rise.|
"C7" C2 C2"Gm7" F2"Bbdim" G2 |"F" A2 A>^G"Fmaj7" A2 A>G |"F7" A2 A2"F+7" G F3 | %27
w: * I want to|ride to the ridge where the|west com- men ces,|
"Bb6" B2 B>A B2 B>c |"Bbmaj7" d2 d2"Eb9" c B3 |"F" A2 A>B"Cm" c>=Bc>d |"D7" _e2 d2"Bbm6" c B3 | %31
w: gaze at the moon till I|lose my sen- ses.|Can't look at hob- bles and I|can't stand fen- ces.|
"F" A4"Bbmaj7" A2"Bbdim" G"F"F- | F6 z2 |] %33
w: Don't fence me in.||

